public/cloud-icons/azure/deployment/commit.svg

<?xml version="1.0" encoding="UTF-8" standalone="no"?>
<!-- Generated by Microsoft Visio, SVG Export Commit.svg Page-1 -->

<svg
   xmlns:dc="http://purl.org/dc/elements/1.1/"
   xmlns:cc="http://creativecommons.org/ns#"
   xmlns:rdf="http://www.w3.org/1999/02/22-rdf-syntax-ns#"
   xmlns:svg="http://www.w3.org/2000/svg"
   xmlns="http://www.w3.org/2000/svg"
   xmlns:sodipodi="http://sodipodi.sourceforge.net/DTD/sodipodi-0.dtd"
   xmlns:inkscape="http://www.inkscape.org/namespaces/inkscape"
   width="56.690014"
   height="56.699905"
   viewBox="0 0 56.690012 56.699906"
   xml:space="preserve"
   class="st5"
   version="1.1"
   id="svg54"
   sodipodi:docname="Commit.svg"
   style="font-size:12px;overflow:visible;color-interpolation-filters:sRGB;fill:none;fill-rule:evenodd;stroke-linecap:square;stroke-miterlimit:3"
   inkscape:version="0.92.5 (2060ec1f9f, 2020-04-08)"><metadata
   id="metadata58"><rdf:RDF><cc:Work
       rdf:about=""><dc:format>image/svg+xml</dc:format><dc:type
         rdf:resource="http://purl.org/dc/dcmitype/StillImage" /></cc:Work></rdf:RDF></metadata><sodipodi:namedview
   pagecolor="#ffffff"
   bordercolor="#666666"
   borderopacity="1"
   objecttolerance="10"
   gridtolerance="10"
   guidetolerance="10"
   inkscape:pageopacity="0"
   inkscape:pageshadow="2"
   inkscape:window-width="640"
   inkscape:window-height="480"
   id="namedview56"
   showgrid="false"
   inkscape:zoom="2.4486917"
   inkscape:cx="28.346468"
   inkscape:cy="14.175301"
   inkscape:window-x="0"
   inkscape:window-y="0"
   inkscape:window-maximized="0"
   inkscape:current-layer="svg54" />
	<style
   type="text/css"
   id="style2">
	<![CDATA[
		.st1 {fill:url(#grad0-6);stroke:none;stroke-linecap:butt;stroke-width:0.75}
		.st2 {fill:url(#grad0-10);stroke:none;stroke-linecap:butt;stroke-width:0.75}
		.st3 {fill:#ffffff;stroke:none;stroke-linecap:butt;stroke-width:0.75}
		.st4 {fill:#b4ec36;stroke:none;stroke-linecap:butt;stroke-width:0.75}
		.st5 {fill:none;fill-rule:evenodd;font-size:12px;overflow:visible;stroke-linecap:square;stroke-miterlimit:3}
	]]>
	</style>

	<defs
   id="Patterns_And_Gradients">
		<linearGradient
   id="grad0-6"
   x1="-0.048513328"
   y1="61.239183"
   x2="27.137652"
   y2="61.239183"
   gradientTransform="scale(0.91746574,1.089959)"
   gradientUnits="userSpaceOnUse">
			<stop
   offset="0"
   stop-color="#773adc"
   stop-opacity="1"
   id="stop4" />
			<stop
   offset="0.23"
   stop-color="#8952e5"
   stop-opacity="1"
   id="stop6" />
			<stop
   offset="0.55"
   stop-color="#9e6ff0"
   stop-opacity="1"
   id="stop8" />
			<stop
   offset="0.735"
   stop-color="#a67af4"
   stop-opacity="1"
   id="stop10" />
		</linearGradient>
		<linearGradient
   id="grad0-10"
   x1="-4.4126749e-06"
   y1="132.00146"
   x2="33.094574"
   y2="132.00146"
   gradientTransform="scale(1.7129699,0.58378143)"
   gradientUnits="userSpaceOnUse">
			<stop
   offset="0"
   stop-color="#773adc"
   stop-opacity="1"
   id="stop13" />
			<stop
   offset="0.735"
   stop-color="#a67af4"
   stop-opacity="1"
   id="stop15" />
		</linearGradient>
	</defs>
	<g
   id="g52"
   transform="translate(-5.6692824,-5.6643954)">
		<title
   id="title19">Page-1</title>
		<g
   id="group18551-1"
   transform="translate(5.66929,-34.0157)">
			<title
   id="title21">Commit.18551</title>
			<g
   id="group18552-2">
				<title
   id="title23">Sheet.18552</title>
				<g
   id="shape18553-3"
   transform="translate(15.9307,-27.0681)">
					<title
   id="title25">Sheet.18553</title>
					<path
   d="M 0.13,79.16 11.47,67.17 a 1.35433,1.43165 0 0 1 1.92,0 l 11.33,11.99 a 0.604724,0.639248 0 0 1 -0.425197,1.09205 L 17.31,80.25 a 0.601575,0.635918 -180 0 0 -0.604724,0.635918 L 16.71,95.87 a 0.485039,0.51273 0 0 1 -0.48189,0.509401 L 8.6,96.38 A 0.485039,0.51273 0 0 1 8.11811,95.870599 L 8.12,80.89 A 0.601575,0.635918 -180 0 0 7.515276,80.254082 L 0.54,80.25 A 0.604724,0.639248 0 0 1 0.130551,79.16128 Z"
   class="st1"
   id="path27"
   inkscape:connector-curvature="0"
   style="fill:url(#grad0-6);stroke:none;stroke-width:0.75;stroke-linecap:butt" />
				</g>
				<g
   id="shape18554-7">
					<title
   id="title30">Sheet.18554</title>
					<path
   d="m 0,94.44 a 1.82996,1.93444 -180 0 0 1.83,1.94 h 53.03 a 1.82996,1.93444 -180 0 0 1.83,-1.94 V 79 A 1.82996,1.93444 -180 0 0 54.86,77.06 H 1.83 A 1.82996,1.93444 -180 0 0 0,79 Z"
   class="st2"
   id="path32"
   inkscape:connector-curvature="0"
   style="fill:url(#grad0-10);stroke:none;stroke-width:0.75;stroke-linecap:butt" />
				</g>
				<g
   id="shape18555-11"
   transform="translate(9.43307,-4.39483)">
					<title
   id="title35">Sheet.18555</title>
					<path
   d="m 0,95.56 a 0.771671,0.815726 -180 0 0 0.771654,0.815707 L 8.71,96.38 A 0.771671,0.815726 -180 0 0 9.481654,95.564293 L 9.49,87.17 A 0.771671,0.815726 -180 0 0 8.718346,86.354293 L 0.77,86.35 a 0.771671,0.815726 -180 0 0 -0.771654,0.815707 z"
   class="st3"
   id="path37"
   inkscape:connector-curvature="0"
   style="fill:#ffffff;stroke:none;stroke-width:0.75;stroke-linecap:butt" />
				</g>
				<g
   id="shape18556-13"
   transform="translate(23.6031,-4.39483)">
					<title
   id="title40">Sheet.18556</title>
					<path
   d="m 0,95.56 a 0.771671,0.815726 -180 0 0 0.771654,0.815707 L 8.71,96.38 A 0.771671,0.815726 -180 0 0 9.481654,95.564293 L 9.49,87.17 A 0.771671,0.815726 -180 0 0 8.718346,86.354293 L 0.77,86.35 a 0.771671,0.815726 -180 0 0 -0.771654,0.815707 z"
   class="st4"
   id="path42"
   inkscape:connector-curvature="0"
   style="fill:#b4ec36;stroke:none;stroke-width:0.75;stroke-linecap:butt" />
				</g>
				<g
   id="shape18557-15"
   transform="translate(37.7732,-4.39483)">
					<title
   id="title45">Sheet.18557</title>
					<path
   d="m 0,95.56 a 0.771671,0.815726 -180 0 0 0.771654,0.815707 L 8.71,96.38 A 0.771671,0.815726 -180 0 0 9.481654,95.564293 L 9.49,87.17 A 0.771671,0.815726 -180 0 0 8.718346,86.354293 L 0.77,86.35 a 0.771671,0.815726 -180 0 0 -0.771654,0.815707 z"
   class="st4"
   id="path47"
   inkscape:connector-curvature="0"
   style="fill:#b4ec36;stroke:none;stroke-width:0.75;stroke-linecap:butt" />
				</g>
			</g>
		</g>
	</g>
</svg>

<svg xmlns="http://www.w3.org/2000/svg" xml:space="preserve" width="56.69" height="56.7" style="font-size:12px;overflow:visible;color-interpolation-filters:sRGB;fill-rule:evenodd;stroke-linecap:square;stroke-miterlimit:3" viewBox="0 0 56.69 56.7"><defs><linearGradient id="a" x1="-.049" x2="27.138" y1="61.239" y2="61.239" gradientTransform="scale(.91747 1.08996)" gradientUnits="userSpaceOnUse"><stop offset="0" stop-color="#773adc"/><stop offset=".23" stop-color="#8952e5"/><stop offset=".55" stop-color="#9e6ff0"/><stop offset=".735" stop-color="#a67af4"/></linearGradient><linearGradient id="b" x1="0" x2="33.095" y1="132.001" y2="132.001" gradientTransform="scale(1.71297 .58378)" gradientUnits="userSpaceOnUse"><stop offset="0" stop-color="#773adc"/><stop offset=".735" stop-color="#a67af4"/></linearGradient></defs><g transform="translate(-5.67 -5.664)"><title>Page-1</title><g transform="translate(5.67 -34.016)"><title>Commit.18551</title><title>Sheet.18552</title><g transform="translate(15.93 -27.068)"><title>Sheet.18553</title><path d="m.13 79.16 11.34-11.99a1.354 1.432 0 0 1 1.92 0l11.33 11.99a.605.64 0 0 1-.425 1.092l-6.985-.002a.602.636-180 0 0-.605.636l.005 14.984a.485.513 0 0 1-.482.51H8.6a.485.513 0 0 1-.482-.51l.002-14.98a.602.636-180 0 0-.605-.636L.54 80.25a.605.64 0 0 1-.41-1.089Z" style="fill:url(#a);stroke:none;stroke-width:.75;stroke-linecap:butt"/></g><title>Sheet.18554</title><path d="M0 94.44a1.83 1.934-180 0 0 1.83 1.94h53.03a1.83 1.934-180 0 0 1.83-1.94V79a1.83 1.934-180 0 0-1.83-1.94H1.83A1.83 1.934-180 0 0 0 79Z" style="fill:url(#b);stroke:none;stroke-width:.75;stroke-linecap:butt"/><g transform="translate(9.433 -4.395)"><title>Sheet.18555</title><path d="M0 95.56a.772.816-180 0 0 .772.816l7.938.004a.772.816-180 0 0 .772-.816l.008-8.394a.772.816-180 0 0-.772-.816L.77 86.35a.772.816-180 0 0-.772.816z" style="fill:#fff;stroke:none;stroke-width:.75;stroke-linecap:butt"/></g><g transform="translate(23.603 -4.395)"><title>Sheet.18556</title><path d="M0 95.56a.772.816-180 0 0 .772.816l7.938.004a.772.816-180 0 0 .772-.816l.008-8.394a.772.816-180 0 0-.772-.816L.77 86.35a.772.816-180 0 0-.772.816z" style="fill:#b4ec36;stroke:none;stroke-width:.75;stroke-linecap:butt"/></g><g transform="translate(37.773 -4.395)"><title>Sheet.18557</title><path d="M0 95.56a.772.816-180 0 0 .772.816l7.938.004a.772.816-180 0 0 .772-.816l.008-8.394a.772.816-180 0 0-.772-.816L.77 86.35a.772.816-180 0 0-.772.816z" style="fill:#b4ec36;stroke:none;stroke-width:.75;stroke-linecap:butt"/></g></g></g></svg>
